X: 1
T: Kitty McGee
M: 6/8
L: 1/8
R: jig
K: Dmaj
d2d AFA|d3 efg|f2d e2d|cec ABc|
d2d AFA|d3 efg|f2d e2c|ddd d2A:|
|:d2f agf|e2f g3|f2d e2d|cec A3|
aaa g2f|e2f g3|f2d e2c|ddd d2A:||
